**kern	**kern	**kern	**kern	**dynam
*part4	*part3	*part2	*part1	*part1
*staff4	*staff3	*staff2	*staff1	*
*I"Cello	*I"Viola	*I"2nd Violin	*I"1st Violin	*
*clefF4	*clefC3	*clefG2	*clefG2	*
*k[b-e-]	*k[b-e-]	*k[b-e-]	*k[b-e-]	*
*B-:	*B-:	*B-:	*B-:	*
*M6/8	*M6/8	*M6/8	*M6/8	*
!	!	!	!LO:TX:a:t=Allegro Vivace Assai	!
8r	8r	8dd	8ff	.
=1	=1	=1	=1	=1
4B-	(4b-	(8ddL	(8ffL	.
.	.	8b-)	8dd)	.
8r	8f)	8b-'J	8dd'J	.
4BB-	(8fL	(8b-L	(8ddL	.
.	8d)	8f)	8b-)	.
8r	8d'J	8f'J	8b-'J	.
=2	=2	=2	=2	=2
(4D	(4d	(4f	(4b-	.
8BB-)	8f)	8b-)	8dd)	.
4F	4.f	4a	4cc	.
8D	.	8b-	8dd	.
=3	=3	=3	=3	=3
.	.	.	16qqff/	.
4C	8.gL	4cc	8.ee-L	.
.	16fk	.	16ddk	.
8r	8e-J	8r	8ccJ	.
(8E-L	4e-	4.c	(8gL	.
8C	.	.	8b-	.
8FJ)	8c	.	8aJ)	.
=4	=4	=4	=4	=4
(4D	(8B-L	(4f	(4b-	.
.	8d	.	.	.
8BB-)	8fJ)	8b-)	8dd)	.
4.F	4.f	4a	4cc	.
.	.	8dd	8ff	.
=5	=5	=5	=5	=5
4B-	4b-	(16ddLL	(16ffLL	.
.	.	16ee-J)	16ggJ)	.
.	.	8dd	8ff	.
8r	8f	8b-J	8ddJ	.
4BB-	(16fLL	(16b-LL	(16ddLL	.
.	16gJ	16ccJ)	16ee-J)	.
.	8f)	8b-	8dd	.
8r	8d'J	8fJ	8b-J	.
=6	=6	=6	=6	=6
(4D	(4d	(4f	(4b-	.
8BB-)	8f)	8b-)	8dd)	.
4F	4.f	4a	4cc	.
8D	.	8b-	8dd	.
=7	=7	=7	=7	=7
.	.	.	16qqff/	.
4.C	8.gL	4cc	8.ee-L	.
.	16fk	.	16ddk	.
.	8e-J	8r	8ccJ	.
(8E-L	4.e-	4.c	(8gL	.
8C	.	.	8b-	.
8FJ)	.	.	8aJ)	.
=8	=8	=8	=8	=8
8BB-L	(4d	8B-L	(4b-	.
8BB-	.	(16B-L	.	.
.	.	16A	.	.
8BB-J	8f)	16B-	8dd)	.
.	.	16AJJ	.	.
[4.BB-	4d	4B-)	4b-	.
.	8d	8f	8r	.
=9	=9	=9	=9	=9
2.BB-_	4e-	4g	2.r	.
.	8d	8f	.	.
.	8.cTL	8.e-TL	.	.
.	16B-k	16dk	.	.
.	8cJ	8e-J	.	.
=10	=10	=10	=10	=10
2.BB-]	[4.d	(8fL	4r	.
.	.	8a	.	.
.	.	8b-J)	8r	.
.	8dL]	4.f	4r	.
.	(8a	.	.	.
.	8b-J)	.	8dd	.
=11	=11	=11	=11	=11
2.FF	2.f	2.c 2.a	(16ee-LL	.
.	.	.	16ff	.
.	.	.	16gg)	.
.	.	.	16ff	.
.	.	.	16ee-	.
.	.	.	16ddJJ	.
.	.	.	16ccLL	.
.	.	.	16b-	.
.	.	.	16a	.
.	.	.	16g	.
.	.	.	16f	.
.	.	.	16e-JJ	.
=12	=12	=12	=12	=12
[4.BB-	[4.B- [4.f	[4.d [4.b-	16dLL	.
.	.	.	16e-	.
.	.	.	16f	.
.	.	.	16g	.
.	.	.	16a	.
.	.	.	16b-JJ	.
8BB-L]	4B-] 4f]	4d] 4b-]	4.f	.
8BB-'	.	.	.	.
8BB-'J	8d	8f	.	.
=13	=13	=13	=13	=13
[2.BB-	(4e-	(4g	2.r	.
.	8d)	8f)	.	.
.	8.cTL	8.e-TL	.	.
.	16B-k	16dk	.	.
.	8cJ	8e-J	.	.
=14	=14	=14	=14	=14
2.BB-]	[4.d	8f'L	4r	.
.	.	(8a	.	.
.	.	8b-J)	8r	.
.	8dL]	4.f	4r	.
.	(8a	.	.	.
.	8b-J)	.	8dd'	.
=15	=15	=15	=15	=15
2.FF	(4.a	2.e- 2.cc	(16ee-LL	.
.	.	.	16dd)	.
.	.	.	16cc	.
.	.	.	16b-	.
.	.	.	16a	.
.	.	.	16b-JJ	.
.	[4.f)	.	(16ccLL	.
.	.	.	16dd	.
.	.	.	16ee-	.
.	.	.	16ff	.
.	.	.	16gg	.
.	.	.	16aaJJ	.
=16	=16	=16	=16	=16
8BB-	8f]	8d 8b-	8bb-L)	.
8r	8r	8r	16r	.
.	.	.	(16b-L	p
8r	8r	8r	16a	.
.	.	.	16b-JJ	.
4.F	[4.f	(4.e- 4.cc	16ccLL	.
.	.	.	16dd	.
.	.	.	16ee-	.
.	.	.	16ff	.
.	.	.	16gg	.
.	.	.	16aaJJ	.
=17	=17	=17	=17	=17
8B-	8f]	8d) 8b-	8bb-L)	.
8r	8r	8r	16r	.
.	.	.	(16b-L	pp
8r	8r	8r	16a	.
.	.	.	16b-JJ	.
(4.F	[4.f	(4.e- 4.cc	16ccLL	.
.	.	.	16dd	.
.	.	.	16ee-	.
.	.	.	16ff	.
.	.	.	16gg	.
.	.	.	16aaJJ	.
=18	=18	=18	=18	=18
8B-L)	8fL]	8dL) 8b-	8bb-')	.
8B-'	8b-'	8bb-'	8r	.
8B-'J	8b-'J	8bb-'J	8r	.
8r	8r	8r	8gg'	.
8G'L	8g'L	8gg'L	8r	.
8G'J	8g'J	8gg'J	8r	.
=19	=19	=19	=19	=19
8r	8r	8r	8dd'	.
8D'L	8d'L	8dd'L	8r	.
8D'J	8d'J	8dd'J	8r	.
8r	8r	8r	8een'	.
8En'L	8en'L	8een'L	8r	.
8E'J	8e'J	8ee'J	8r	.
=20	=20	=20	=20	=20
[2.F	8r	8r	[2.ff	.
.	(8AL	(8cL	.	.
.	8cJ	8e-J	.	.
.	8B-L	8dL	.	.
.	8A	8c	.	.
.	8GJ)	8B-J)	.	.
=21	=21	=21	=21	=21
2.F_	(8FL	(8AL	2.ff_	.
.	8A	8c	.	.
.	8cJ	8e-J	.	.
.	8B-L	8dL	.	.
.	8A	8c	.	.
.	8GJ)	8B-J)	.	.
=22	=22	=22	=22	=22
8F]	8F	8A	(8ffL]	.
8r	8r	8r	8gg	.
(8C	(8G	(8B-	8eenJ	.
8F)	8F)	8A)	8ffL	.
8r	8r	8r	8aa	.
(8C	(8G	(8B-	8eeJ)	.
=23	=23	=23	=23	=23
8F)	8F)	8A)	(8ffL	.
8r	8r	8r	8ccc	.
(8c	(8g	(8b-	8eenJ	.
8F)	8f)	8a)	8ffL	.
8r	8r	8r	8fff	.
(8c	(8g	(8b-	8eeJ)	.
=24	=24	=24	=24	=24
8FL)	8fL)	8aL)	(8ff'L	.
(8F'	(8c'	(8a'	8ff'	.
8F'J	8c'J	8a'J	8ff'J	.
8F'L	8c'L	8a'L	8ff'L	.
8F'	8c'	8a'	8ff'	.
8F'J)	8c'J)	8a'J)	8ff'J)	.
=25	=25	=25	=25	=25
4.F	4.c	4.a	4ff	.
.	.	.	8r	.
4r	4r	4r	4ff	.
8r	8r	8r	8r	.
=26	=26	=26	=26	=26
.	.	.	32qqeen/LLL	f
.	.	.	32qff/	.
.	.	.	32qqgg/JJJ	.
2.r	4r	4r	2.ff	.
.	8r	8r	.	.
.	4r	4r	.	.
.	8d	8f	.	.
=27	=27	=27	=27	=27
2.r	(8dL	(8fL	2.ff	.
.	8B-)	8d)	.	.
.	8B-'J	8d'J	.	.
.	(8B-L	(8dL	.	.
.	8D)	8B-)	.	.
.	8D'J	8B-'J	.	.
=28	=28	=28	=28	=28
(4D	(4F	(4B-	2.ff	.
8BB-)	8B-)	8d)	.	.
4.F	4A	4c	.	.
.	8c-X	8d	.	.
=29	=29	=29	=29	=29
2.r	(16cLL	(16e-LL	2.ff	.
.	16dJ	16fJ	.	.
.	8c)	8e-)	.	.
.	8A'J	8c'J	.	.
.	(16ALL	(16cLL	.	.
.	16B-J	16dJ	.	.
.	8A)	8c)	.	.
.	8C'J	8A'J	.	.
=30	=30	=30	=30	=30
(4FF	(4C	(4A	4.ff	.
8AA)	8c)	8e-)	.	.
.	.	.	32qqeen/LLL	.
.	.	.	32qqff/JJJ	.
4BB-	4B-	4d	4f	.
(8AA	(8c	(8f#X	[8dd	.
=31	=31	=31	=31	=31
4.GG)	4.B-)	4.g)	8ddL]	.
.	.	.	16eenL	.
.	.	.	16ff#X	.
.	.	.	16gg	.
.	.	.	16aaJJ	.
(4.G	(4B-	(4d	16bb-LL	.
.	.	.	16aa	.
.	.	.	16gg	.
.	.	.	16ffn	.
.	8g)	8b-)	16ee	.
.	.	.	16ddJJ	.
=32	=32	=32	=32	=32
4.En	(4.g	(4.b-	(16ddLL	.
.	.	.	16cc)	.
.	.	.	16dd	.
.	.	.	16een	.
.	.	.	16ff	.
.	.	.	16ggJJ	.
4.F	[4.f)	[4.a)	16aaLL	.
.	.	.	16gg	.
.	.	.	16ff	.
.	.	.	16ee	.
.	.	.	16dd	.
.	.	.	16ccJJ	.
=33	=33	=33	=33	=33
4.D	4.f]	(4.a]	(16ccLL	.
.	.	.	16b-)	.
.	.	.	16cc	.
.	.	.	16dd	.
.	.	.	16een	.
.	.	.	16ffJJ	.
4.En	[4.f-X	[4.g)	16ggLL	.
.	.	.	16ff	.
.	.	.	16ee	.
.	.	.	16dd	.
.	.	.	16cc	.
.	.	.	16b-JJ	.
=34	=34	=34	=34	=34
4.C#X	(4.f-]	(4.g]	(16b-LL	.
.	.	.	16a)	.
.	.	.	16bn	.
.	.	.	16cc#X	.
.	.	.	16dd	.
.	.	.	16eenJJ	.
4.D)	4.d)	4.f)	16ffLL	.
.	.	.	16ee-X	.
.	.	.	16dd	.
.	.	.	16ccn	.
.	.	.	16b-X	.
.	.	.	16aJJ	.
=35	=35	=35	=35	=35
4.BB-	4.d	4.f	(8aL	.
.	.	.	8g)	.
.	.	.	8ddJ	.
.	.	16qqb-/LL	(32qqgg/LLL	.
.	.	16qqcc/JJ	32qqaa/JJJ)	.
8GG'L	8B-'L	8dd'L	8bb-'L	.
8AA'	8c'	8cc'	8aa'	.
8BB-'J	8d'J	8b-'J	8gg'J	.
=36	=36	=36	=36	=36
(4.C	4.c	(4a	(4ff	.
.	.	[8g)	[8een)	.
4.En)	(4B-	(4g]	8eeL]	.
.	.	.	8dd	.
.	8G)	8b-)	8ccJ	.
=37	=37	=37	=37	=37
4.F	4.A	(8aL	(8ccL	.
.	.	8cc	8ff	.
.	.	8aJ)	8ccJ)	.
(8AAL	(8cL	(8aL	(8ccL	.
8BB-	8d)	8g	8b-	.
8BBnJ)	8dJ	8fJ)	8aJ)	.
=38	=38	=38	=38	=38
(4.C	[2.c	(8fL	(8aL	.
.	.	8f-XJ)	8gJ)	.
.	.	4bn	4dd	.
4.En)	.	.	.	.
.	.	(8aL	(8ccL	.
.	.	8gJ)	8b-J)	.
=39	=39	=39	=39	=39
4.F	4.c_	(8gL	(8b-L	.
.	.	8fJ)	8aJ)	.
.	.	4a	4cc	.
(4A	(4c]	.	.	.
.	.	(8gL	(8b-L	.
8B-)	8d)	8fJ)	8aJ)	.
=40	=40	=40	=40	=40
(4.c	[2.c	(8fL	(8aL	.
.	.	8enJ)	8gJ)	.
.	.	4b-	4dd	.
4.En)	.	.	.	.
.	.	(8aL	(8ccL	.
.	.	8gJ)	8b-J)	.
=41	=41	=41	=41	=41
4.F	(4c]	(8gL	(8b-L	.
.	.	8fJ)	8aJ)	.
.	8A)	4a	4cc	.
4.D	(4.F	.	.	.
.	.	8r	8aL	.
.	.	8f	8fJ	.
=42	=42	=42	=42	=42
4.C	4.G)	4.en	(16ccLL	.
.	.	.	16dd	.
.	.	.	16cc	.
.	.	.	16ddJ	.
.	.	.	8ccJ)	.
4r	4r	8r	4r	.
.	.	8aL	.	.
8r	8r	8fJ	8r	.
=43	=43	=43	=43	=43
2.r	4r	(16ccLL	2.r	.
.	.	16dd	.	.
.	.	16cc	.	.
.	.	16ddJ	.	.
.	8r	8ccJ)	.	.
.	8r	4r	.	.
.	8A'L	.	.	.
.	8F'J	8r	.	.
=44	=44	=44	=44	=44
4r	(16cLL	2.r	2.r	.
.	16d	.	.	.
.	16c	.	.	.
.	16dJ	.	.	.
8r	8cJ)	.	.	.
8r	4r	.	.	.
8AA'L	.	.	.	.
8FF'J	8r	.	.	.
=45	=45	=45	=45	=45
(16CLL	4r	2.r	2.r	.
16D	.	.	.	.
16C	.	.	.	.
16DJ	.	.	.	.
8CJ)	8r	.	.	.
4r	(16cLL	.	.	.
.	16d	.	.	.
.	16c	.	.	.
.	16dJ	.	.	.
8r	8cJ)	.	.	.
=46	=46	=46	=46	=46
2.r	2.r	(16ccLL	4r	.
.	.	16dd	.	.
.	.	16cc	.	.
.	.	16ddJ	.	.
.	.	8ccJ)	8r	.
.	.	4r	(16cccLL	.
.	.	.	16ddd	.
.	.	.	16ccc	.
.	.	.	16dddJ	.
.	.	8r	8cccJ)	.
=47	=47	=47	=47	=47
*	*	*^	*	*
(4.C	2.r	(4.en	2.G	(16b-LL	.
.	.	.	.	16cc	.
.	.	.	.	16b-	.
.	.	.	.	16ccJ	.
.	.	.	.	8b-J)	.
4.D-X	.	4.f)	.	8r	.
.	.	.	.	(8b-'L	.
.	.	.	.	8b-'J)	.
=48	=48	=48	=48	=48	=48
4.C	(16B-LL	(4.g	[2.G	(4ff	.
.	16c	.	.	.	.
.	16B-	.	.	.	.
.	16cJ	.	.	.	.
.	8B-J)	.	.	8een)	.
4.D-X	8r	4.f	.	4r	.
.	(8B-'L	.	.	.	.
.	8B-'J)	.	.	8r	.
=49	=49	=49	=49	=49	=49
4.C	(4f	4.g	2.G]	(16b-LL	.
.	.	.	.	16cc	.
.	.	.	.	16b-	.
.	.	.	.	16ccJ	.
.	8en)	.	.	8b-J)	.
4.D-X	4r	4.f)	.	8r	.
.	.	.	.	(8b-'L	.
.	8r	.	.	8b-'J)	.
*	*	*v	*v	*	*
=50	=50	=50	=50	=50
4.C)	(16B-LL	4.g	(4ff	.
.	16c	.	.	.
.	16B-	.	.	.
.	16cJ	.	.	.
.	8B-J)	.	8een)	.
.	.	.	16qqee/LL	fp
.	.	.	16qqgg/JJ	.
(4.B-	(4g	[4.cc	(4bb-	.
.	16enLL	.	16ggLL	.
.	16gJJ)	.	16eeJJ)	.
=51	=51	=51	=51	=51
8A)	8f	8cc]	(16ffLL	.
.	.	.	16gg	.
8r	8r	8r	16ff	.
.	.	.	16ggJ	.
8r	8r	8r	8aaJ)	.
8B-	8g	8b-	(16ddLL	.
.	.	.	16ee-	.
8r	8r	8r	16dd	.
.	.	.	16eenJ	.
8r	8r	8r	8ffJ)	.
=52	=52	=52	=52	=52
8G	8B-	8d	(16b-LL	.
.	.	.	16cc	.
8r	8r	8r	16b-	.
.	.	.	16ccJ	.
8r	8r	8r	8ddJ)	.
8F-X	8c	8g	(16gLL	.
.	.	.	16a	.
8r	8r	8r	16g	.
.	.	.	16aJ	.
8r	8r	8r	8b-J)	.
=53	=53	=53	=53	=53
4.F	4.c	(8fL	(8aL	.
.	.	8b-)	8dd)	.
.	.	8aJ	8ccJ	.
.	.	16qqa/	16qqcc/	.
8BB-'L	8d'L	8g'L	8b-'L	.
8C'	8c'	8f'	8a'	.
8C'J	8B-'J	8en'J	8g'J	.
=54	=54	=54	=54	=54
4.FF	4.A	4.f	4.f	.
4r	4r	8f'L	4r	.
.	.	8g'	.	.
8r	8r	8a'J	8r	.
=55	=55	=55	=55	=55
(4En	(4B-	(16cLL	2.r	.
.	.	16d	.	.
.	.	16c	.	.
.	.	16dJ	.	.
8F)	8A)	8cJ)	.	.
4r	4r	8f'L	.	.
.	.	8g'	.	.
8r	8r	8a'J	.	.
=56	=56	=56	=56	=56
(4En	(4B-	(16cLL	2.r	.
.	.	16d	.	.
.	.	16c	.	.
.	.	16dJ	.	.
8F)	8A)	8cJ)	.	.
4r	4r	8f'L	.	.
.	.	8g'	.	.
8r	8r	8a'J	.	.
=57	=57	=57	=57	=57
4En	4B-	(16cLL	2.r	.
.	.	16d	.	.
.	.	16c	.	.
.	.	16dJ	.	.
8F	8A	8cJ)	.	.
4A	4e-X	(16fLL	.	.
.	.	16g	.	.
.	.	16f	.	.
.	.	16gJ	.	.
8B-	8d	8fJ)	.	.
=58	=58	=58	=58	=58
4Bn	4f	(16gLL	2.r	.
.	.	16a	.	.
.	.	16g	.	.
.	.	16aJ	.	.
8c	8en	8gJ)	.	.
4en	4b-	(16ccLL	.	.
.	.	16dd	.	.
.	.	16cc	.	.
.	.	16ddJ	.	.
8f	8a	8ccJ)	.	.
=59	=59	=59	=59	=59
4B-X	8r	8r	2.r	.
.	8b-'L	8dd'L	.	.
8r	8a'J	8cc'J	.	.
.	16qqa/	16qqcc/	.	.
4c	8g'L	8b-'L	.	.
.	8f'	8a'	.	.
8r	8en'J	8g'J	.	.
=60	=60	=60	=60	=60
4F	4.f	4.f	4r	.
8r	.	.	8r	.
4r	4r	4r	8ff'L	.
.	.	.	8gg'	p
8r	8r	8r	8aa'J	.
=61	=61	=61	=61	=61
2.r	(4e-	(4b-	(16ccLL	.
.	.	.	16dd	.
.	.	.	16cc	.
.	.	.	16ddJ	.
.	8f)	8a)	8ccJ)	.
.	4r	4r	8ff'L	.
.	.	.	8gg'	.
.	8r	8r	8aa'J	.
=62	=62	=62	=62	=62
2.r	(4e-	(4b-	(16ccLL	.
.	.	.	16dd	.
.	.	.	16cc	.
.	.	.	16ddJ	.
.	8f)	8a)	8ccJ)	.
.	4r	4r	8ff'L	.
.	.	.	8gg'	.
.	8r	8r	8aa'J	.
=63	=63	=63	=63	=63
2.r	(4c#X	(4g	(16aLL	.
.	.	.	16b-	.
.	.	.	16a	.
.	.	.	16b-J	.
.	8d)	8f)	8aJ)	.
.	(4f#X	(4cc	(16ddLL	.
.	.	.	16ee-X	.
.	.	.	16dd	.
.	.	.	16ee-J	.
.	8g)	8b-)	8ddJ)	.
=64	=64	=64	=64	=64
(4Bn	(4f	(16gLL	(16ggLL	.
.	.	16a	16aa	.
.	.	16g	16gg	.
.	.	16aJ	16aaJ	.
8c)	8en)	8gJ)	8ggJ)	.
(4en	(4b-	(16ccLL	(16cccLL	.
.	.	16dd	16ddd	.
.	.	16cc	16ccc	.
.	.	16ddJ	16dddJ	.
8f)	8a)	8ccJ)	8cccJ)	.
=65	=65	=65	=65	=65
4B-	8r	8r	8r	.
.	8b-'L	8dd'L	8ddd'L	.
8r	8a'J	8cc'J	8ccc'J	.
.	16qqa/	16qqcc/	16qqccc/	.
4c	8g'L	8b-'L	8bb-'L	.
.	8f'	8a'	8aa'	.
8r	8f-X'J	8g'J	8gg'J	.
*clefC4	*	*	*	*
=66	=66	=66	=66	=66
(16fLL	(16aLL	4.f	2.ff	.
16g	16b-	.	.	.
16f	16a	.	.	.
16gJ	16b-J	.	.	.
8aJ)	8ccJ)	.	.	.
(16dLL	(16fLL	4r	.	.
16e-	16g	.	.	.
16d	16f	.	.	.
16e-J	16gJ	.	.	.
8fJ)	8aJ)	8r	.	.
=67	=67	=67	=67	=67
(16B-LL	(16dLL	(16gLL	2.ddd	.
16c	16en	16a	.	.
16B-	16d	16g	.	.
16cJ	16eJ	16aJ	.	.
8dJ)	8fJ)	8b-J)	.	.
(16GLL	(16B-LL	(16enLL	.	.
16A	16c	16f	.	.
16G	16B-	16e	.	.
16AJ	16cJ	16fJ	.	.
8B-J)	8dJ)	8gJ)	.	.
*clefF4	*	*	*	*
=68	=68	=68	=68	=68
(4En	(4g	(4bb-	(16cccLL	.
.	.	.	16ddd	.
.	.	.	16ccc	.
.	.	.	16dddJ	.
8F)	8a)	8aa)	8cccJ)	.
.	.	16qqaa/	16qqccc/	.
8B-'L	8dd'L	8gg'L	8bb-'L	.
8c'	8cc'	8ff'	8aa'	.
8c'J	8b-'J	8een'J	8gg'J	.
=69	=69	=69	=69	=69
(16FLL	(16aLL	4.ff	2.ff	.
16G	16b-	.	.	.
16F	16a	.	.	.
16GJ	16b-J	.	.	.
8AJ)	8ccJ)	.	.	.
(16DLL	(16fLL	4r	.	.
16En	16g	.	.	.
16D	16f	.	.	.
16EJ	16gJ	.	.	.
8FJ)	8aJ)	8r	.	.
=70	=70	=70	=70	=70
(16BB-LL	(16dLL	(16gLL	2.ddd	.
16C	16en	16a	.	.
16BB-	16d	16g	.	.
16CJ	16eJ	16aJ	.	.
8DJ)	8fJ)	8b-J)	.	.
(16GGLL	(16B-LL	(16enLL	.	.
16AA	16c	16f	.	.
16GG	16B-	16e	.	.
16AAJ	16cJ	16fJ	.	.
8BB-J)	8dJ)	8gJ)	.	.
=71	=71	=71	=71	=71
(2.EE-	(2.G	(2.B-	(2.ddd-X	.
=72	=72	=72	=72	=72
2.FF#X)	2.A)	2.e-X)	2.ccc)	.
=73	=73	=73	=73	=73
(2.GG#X	2.d	[2.f	(2.bbn	.
=74	=74	=74	=74	=74
4.AA	(4.c	(4.f]	4.ccc	.
4.BBn	[4.f)	4.a-X)	4.ddd)	.
=75	=75	=75	=75	=75
8C)	8f]	8an	(8cccL	.
8r	8r	8r	8bbn	.
8r	8r	8r	8bb-XJ	.
4r	4r	4r	8aaL	.
.	.	.	8aa-X	.
8r	8r	8r	8ggJ)	.
=76	=76	=76	=76	=76
2.CC	(4.A	(4.c	(4.ff	.
.	.	.	16qqaa/	.
.	4.B-)	4.en)	4.gg)	.
=77	=77	=77	=77	=77
[2.FF	4.A	4.f	[2.ff	.
.	4r	4r	.	.
.	8a	8cc	.	.
=78	=78	=78	=78	=78
2.FF_	(4b-	(4dd	2.ff_	.
.	8a)	8cc)	.	.
.	8.gTL	8.b-TL	.	.
.	16fk	16ak	.	.
.	8gJ	8b-J	.	.
=79	=79	=79	=79	=79
4.FF_	(4g#X	4bn	4.ff_	.
.	8a)	8cc	.	.
(4FF]	(4f	(4a	(4ff]	.
8AA)	8c)	8e-X)	8ff#X)	.
=80	=80	=80	=80	=80
(4.BB-	(4.B-	(4.d	(4gg	.
.	.	.	8ff)	.
4.C)	4.G)	4.B-)	8.eenL	.
.	.	.	16ddk	.
.	.	.	8eeJ	.
=81	=81	=81	=81	=81
[2.F	4.F	4.A	(8ffL	.
.	.	.	8aa	.
.	.	.	8cccJ)	.
.	4r	4r	[4.ff	.
.	8a	8cc#X	.	.
=82	=82	=82	=82	=82
2.F_	(4b-	(4dd	2.ff_	.
.	8a)	8ccn)	.	.
.	8.gTL	8.b-TL	.	.
.	16fk	16ak	.	.
.	8gJ	8b-J	.	.
=83	=83	=83	=83	=83
(4F]	(4g#X	(4bn	(4.ff]	.
8E-X)	8a)	8cc)	.	.
.	32qqa/LLL	32qqcc/LLL	.	.
.	32qqb/JJJ	32qqdd/JJJ	.	.
4.D	8.ccL	8.ee-L	4.ff#X)	.
.	16b-k	16ddk	.	.
.	8aJ	8ccJ	.	.
=84	=84	=84	=84	=84
4G	4g	4b-	(8ggL	.
.	.	.	8bb-	.
8r	8r	8r	8dddJ)	.
4C	4g	4b-	(8dddL	.
.	.	.	8ccc	.
8r	8r	8r	8eenJ)	.
=85	=85	=85	=85	=85
4F	4f	4a	(8ffnL	.
.	.	.	8aa	.
8r	8r	8r	8cccJ)	.
4D	4f	4a	(8cccL	.
.	.	.	8bb-	.
8r	8r	8r	8aaJ)	.
=86	=86	=86	=86	=86
!LO:TX:b:i:t=calando	!LO:TX:b:i:t=calando	!LO:TX:b:i:t=calando	!LO:TX:b:i:t=calando	!
4BB-	4g	4b-	(8ggL	.
.	.	.	8bb-	.
8r	8r	8r	8dddJ)	.
4C	4g	4b-	(8dddL	.
.	.	.	8ccc	.
8r	8r	8r	8eenJ)	.
=87	=87	=87	=87	=87
4F	4f	4a	(8ffL	.
.	.	.	8aa	.
8r	8r	8r	8cccJ)	.
4d	4f	4a	(8cccL	.
.	.	.	8bb-	.
8r	8r	8r	8aaJ)	.
=88	=88	=88	=88	=88
4B-	4g	4b-	(8ggL	.
.	.	.	8bb-	.
8r	8r	8r	8dddJ)	.
4c	4g	4b-	(8dddL	.
.	.	.	8ccc	.
8r	8r	8r	8eenJ)	.
=89	=89	=89	=89	=89
4F	4f	4a	4ff	.
8r	8r	8r	8r	.
4f	4cc	4aa	4fff	.
8r	8r	8r	8r	.
=90	=90	=90	=90	=90
4f	4cc	4aa	4fff	.
8r	8r	8r	8r	.
8r	8r	8r	8r	.
8r	8r	8r	8r	.
=:|!|:	=:|!|:	=:|!|:	=:|!|:	=:|!|:
8r	8r	8r	8cc	.
=91	=91	=91	=91	=91
[2.FF	([4.A	[2.c	([4.cc	.
.	8AL]	.	8ccL]	.
.	8F	.	8a	.
.	8AJ)	.	8ffJ)	.
=92	=92	=92	=92	=92
2.FF]	([4.A	2.c_	([4.cc	.
.	8AL]	.	8ccL]	.
.	8c	.	8a	.
.	8AJ)	.	8fJ)	.
=93	=93	=93	=93	=93
[2.C	(8B-L	2.c_	(8enL	.
.	8G	.	8g	.
.	8EnJ)	.	8b-J)	.
.	8EL	.	8b-L	.
.	8E	.	8b-	.
.	8EJ	.	8b-J	.
=94	=94	=94	=94	=94
(4.C]	(4.En	2.c_	(4.b-	.
8FF)	4F	.	4a)	.
8r	.	.	.	.
8r	8A)	.	8cc	.
=95	=95	=95	=95	=95
[2.FF	([4.A	2.c_	([4.cc	.
.	8AL]	.	8ccL]	.
.	8F	.	8a	.
.	8AJ)	.	8ffJ)	.
=96	=96	=96	=96	=96
2.FF]	([4.A	2.c_	([4.cc	.
.	8AL]	.	8ccL]	.
.	8c	.	8a	.
.	8AJ)	.	8fJ)	.
=97	=97	=97	=97	=97
.	.	.	8qqcc/	.
(2.CC	([4.G	2.c_	[4.b-	.
.	8GL]	.	8b-L]	.
.	8B-	.	(8g	.
.	8GJ)	.	8enJ)	.
=98	=98	=98	=98	=98
4FF)	4A	4c]	8fL	.
.	.	.	(8f	.
8r	8r	8r	8aJ	.
4r	4r	4r	8ccL	.
.	.	.	8ff	.
8r	8r	8r	8aaJ)	.
=99	=99	=99	=99	=99
[2.FF	[2.f	(8aL	([4.ccc	.
.	.	8c	.	.
.	.	8fJ	.	.
.	.	8aL	8cccL]	.
.	.	8f	8aa	.
.	.	8ccJ)	8fffJ)	.
=100	=100	=100	=100	=100
2.FF]	4.f_	(8aL	([4.ccc	.
.	.	8c	.	.
.	.	8fJ	.	.
.	4f]	8aL	8cccL]	.
.	.	8cc	8aa	.
.	8F	8aJ)	8ffJ)	.
=101	=101	=101	=101	=101
(8CL	(8GL	(8b-L	(8eenL	.
8En	8B-	8g	8gg	.
8GJ)	8cJ)	8enJ)	8bb-J)	.
8cL	8gL	8eL	8bb-L	.
8c	8g	8e	8bb-	.
8cJ	8gJ	8eJ	8bb-J	.
=102	=102	=102	=102	=102
(4.c	(4.g	(8enL	(4.bb-	.
.	.	8d	.	.
.	.	8eJ	.	.
8F)	8f)	8fL	4aa)	.
8r	8r	8c	.	.
8r	8r	8aJ)	8ccc	.
=103	=103	=103	=103	=103
[2.F	[2.f	(8aL	([4.ccc	.
.	.	8c	.	.
.	.	8fJ	.	.
.	.	8aL	8cccL]	.
.	.	8f	8aa	.
.	.	8ccJ)	8fffJ)	.
=104	=104	=104	=104	=104
2.F]	4.f_	(8aL	([4.ccc	.
.	.	8c	.	.
.	.	8fJ	.	.
.	4f]	8aL	8cccL]	.
.	.	8cc	8aa	.
.	8F	8aJ)	8ffJ)	.
=105	=105	=105	=105	=105
.	.	.	8qqccc/	.
(8CL	(8GL	(8enL	([4.bb-	.
8En	8B-	8g	.	.
8GJ)	8cJ)	8eJ)	.	.
8cL	8enL	(8gL	8bb-L]	.
8c	(8e	8b-)	8gg	.
8cJ	8gJ)	8b-J	8eenJ)	.
=106	=106	=106	=106	=106
8FL	8fL	8a-XL	4.ff	.
8F'	8A-X'	8c'	.	.
8F'J	8A-'J	8c'J	.	.
8F'	8A-'	8c'	8r	.
8r	8r	8r	(16fLL	.
.	.	.	16en	.
8r	8r	8r	16g	.
.	.	.	16fJJ	.
=107	=107	=107	=107	=107
8r	8r	8r	8a-X)	.
8F'L	8c'L	8f'L	8r	.
8F'J	8c'J	8f'J	8r	.
8F'	8c'	8f'	8r	.
8r	8r	8r	(16a-LL	.
.	.	.	16g	.
8r	8r	8r	16b-	.
.	.	.	16a-JJ	.
=108	=108	=108	=108	=108
8r	8r	8r	8cc)	.
8F'L	8f'L	8a-X'L	8r	.
8F'J	8f'J	8a-'J	8r	.
8F'	8f'	8a-'	8r	.
8r	8r	8r	(16ffLL	.
.	.	.	16een	.
8r	8r	8r	16gg	.
.	.	.	16ffJJ)	.
=109	=109	=109	=109	=109
8r	8r	8r	(4.aa-X	.
8F'L	8f'L	8cc'L	.	.
8F'J	8f'J	8cc'J	.	.
8r	8r	8r	4.cc)	.
8A-X'L	8c'L	8f'L	.	.
8A-'J	8c'J	8f'J	.	.
=110	=110	=110	=110	=110
8r	8r	8r	4.bn	.
8G'L	8d'L	8f'L	.	.
8G'J	8d'J	8f'J	.	.
8G'	8d'	8f'	8r	.
8r	8r	8r	(16bLL	.
.	.	.	16a	.
8r	8r	8r	16cc	.
.	.	.	16bJJ	.
=111	=111	=111	=111	=111
8r	8r	8r	8dd)	.
8G'L	8f'L	8bn'L	8r	.
8G'J	8f'J	8b'J	8r	.
8G'	8f'	8b'	8r	.
8r	8r	8r	(16ddLL	.
.	.	.	16cc	.
8r	8r	8r	16ee-	.
.	.	.	16ddJJ	.
=112	=112	=112	=112	=112
8r	8r	8r	8ff)	.
8G'L	8bn'L	8dd'L	8r	.
8G'J	8b'J	8dd'J	8r	.
8G'	8b'	8dd'	8r	.
8r	8r	8r	(16bbnLL	.
.	.	.	16aa	.
8r	8r	8r	16ccc	.
.	.	.	16bbJJ)	.
=113	=113	=113	=113	=113
8r	8r	8r	(4.ddd	.
8GL	8cc-XL	8ffL	.	.
8GJ	8cc-J	8ffJ	.	.
8r	8r	8r	4.ff)	.
8GL	8cc-L	8ddL	.	.
8GJ	8cc-J	8ddJ	.	.
=114	=114	=114	=114	=114
8r	8r	8r	4.ee-	.
8CL	(16E-LL	(16cLL	.	.
.	16D	16Bn	.	.
8CJ	16F	16d	.	.
.	16E-JJ	16cJJ	.	.
8C	8G)	8e-)	8r	.
8r	8r	8r	(16e-LL	.
.	.	.	16d	.
8r	8r	8r	16f	.
.	.	.	16e-JJ	.
=115	=115	=115	=115	=115
8r	8r	8r	8g)	.
8CL	(16cLL	(16e-LL	8r	.
.	16Bn	16d	.	.
8CJ	16d	16f	8r	.
.	16cJJ	16e-JJ	.	.
8C	8e-)	8g)	8r	.
8r	8r	8r	(16ccLL	.
.	.	.	16bn	.
8r	8r	8r	16dd	.
.	.	.	16ccJJ	.
=116	=116	=116	=116	=116
8r	8r	8r	8ee-)	.
8CL	(16e-LL	(16ccLL	8r	.
.	16d	16bn	.	.
8CJ	16f	16dd	8r	.
.	16e-JJ	16ccJJ	.	.
8C	8g)	8ee-)	8r	.
8r	8r	8r	(16ee-LL	.
.	.	.	16dd	.
8r	8r	8r	16ff	.
.	.	.	16ee-JJ)	.
=117	=117	=117	=117	=117
8r	2.r	(4.ee-	(4.gg	.
(16CLL	.	.	.	.
16BBn	.	.	.	.
16D	.	.	.	.
16CJJ	.	.	.	.
8E-L)	.	4.g)	4.b-X)	.
(16BB-XL	.	.	.	.
16AA	.	.	.	.
16C	.	.	.	.
16BB-JJ	.	.	.	.
=118	=118	=118	=118	=118
8DL)	8r	4.f#X	4.a	.
(16DL	(16F#XLL	.	.	.
16C#X	16En	.	.	.
16En	16G	.	.	.
16DJJ	16F#JJ	.	.	.
8F#X)	8A)	8r	8r	.
8r	8r	(16f#LL	(16aLL	.
.	.	16en	16g	.
8r	8r	16g	16b-	.
.	.	16f#JJ	16aJJ	.
=119	=119	=119	=119	=119
8r	8r	8a)	8cc)	.
(16dLL	(16f#XLL	8r	8r	.
16c#X	16en	.	.	.
16en	16g	8r	8r	.
16dJJ	16f#JJ	.	.	.
8f#X)	8a)	8r	8r	.
8r	8r	(16aLL	(16ff#XLL	.
.	.	16g	16een	.
8r	8r	16b-	16gg	.
.	.	16aJJ	16ff#JJ	.
=120	=120	=120	=120	=120
8r	4r	8cc)	8aaL)	.
(16ALL	.	8r	(16ccL	.
16G	.	.	16b-	.
16B-	8r	8r	16dd	.
16AJJ	.	.	16ccJJ	.
8c)	8r	8r	8ee-)	.
8r	(16f#XLL	(16aaLL	8r	.
.	16en	16gg	.	.
8r	16g	16bb-	8r	.
.	16f#JJ)	16aaJJ)	.	.
=121	=121	=121	=121	=121
8r	(4.a	(4.ccc	4r	.
(16DLL	.	.	.	.
16C#X	.	.	.	.
16En	.	.	8r	.
16DJJ	.	.	.	.
8F#X)	4.A)	4.cc)	8r	.
8r	.	.	(16ggLL	.
.	.	.	16ff#X	.
8r	.	.	16aa	.
.	.	.	16ggJJ	.
=122	=122	=122	=122	=122
8r	(4.G	(4.b-	8bb-)	.
(16GGLL	.	.	8r	.
16FF#X	.	.	.	.
16AA	.	.	8r	.
16GGJJ	.	.	.	.
8BB-)	4.fn	4.dd-X	8r	.
8r	.	.	(16ggLL	.
.	.	.	16ff	.
8r	.	.	16aa-X	.
.	.	.	16ggJJ	.
=123	=123	=123	=123	=123
8r	4.f-X	4.cc	8bb-)	.
(16CLL	.	.	8r	.
16BBn	.	.	.	.
16D	.	.	8r	.
16CJJ	.	.	.	.
8En)	4.g)	4.b-)	8r	.
8r	.	.	(16ffLL	.
.	.	.	16ee-	.
8r	.	.	16gg	.
.	.	.	16ffJJ	.
=124	=124	=124	=124	=124
8r	(4.f	(4.a-X	8aa-X)	.
(16FFLL	.	.	8r	.
16EEn	.	.	.	.
16GG	.	.	8r	.
16FFJJ	.	.	.	.
8AA-X)	4.c-X)	4.e-)	8r	.
8r	.	.	16ffLL	.
.	.	.	16ee-	.
8r	.	.	16gg-X	.
.	.	.	16ffJJ	.
=125	=125	=125	=125	=125
8r	(4.B-	(4.d	8aa-X	.
(16BB-LL	.	.	8r	.
16AA	.	.	.	.
16C	.	.	8r	.
16BB-JJ	.	.	.	.
4.D)	4.f)	4.a-X)	8r	.
.	.	.	8ff'L	.
.	.	.	8b-'J	.
=126	=126	=126	=126	=126
(4.E-	8e-'L	16gLL	(16bb-LL	.
.	.	16e-	16ccc	.
.	8e-'	16B-	16bb-	.
.	.	16e-	16cccJ	.
.	8B-'J	16g	8bb-J)	.
.	.	16e-JJ	.	.
4.D)	(16b-LL	16a-XLL	8r	.
.	16cc	16f	.	.
.	16b-	16B-	8ff'L	.
.	16ccJ	16f	.	.
.	8b-J)	16a-	8b-'J	.
.	.	16fJJ	.	.
=127	=127	=127	=127	=127
(4.E-	8r	16gLL	(16bb-LL	.
.	.	16e-	16ccc	.
.	8e-'L	16B-	16bb-	.
.	.	16e-	16cccJ	.
.	8B-'J	16g	8bb-J)	.
.	.	16e-JJ	.	.
4.D)	(16b-LL	16a-XLL	8r	.
.	16cc	16f	.	.
.	16b-	16B-	8ffL	.
.	16ccJ	16f	.	.
.	8b-J)	16a-	8b-J	.
.	.	16fJJ	.	.
=128	=128	=128	=128	=128
4.E-	(16gLL	4.e-	(16bb-LL	.
.	16a-X	.	16ccc	.
.	16g	.	16bb-	.
.	16a-J	.	16cccJ	.
.	8gJ)	.	8bb-J)	.
4r	(16e-LL	4r	(16ggLL	.
.	16f	.	16aa-X	.
.	16e-	.	16gg	.
.	16fJ	.	16aa-J	.
8r	8e-J)	8r	8ggJ)	.
=129	=129	=129	=129	=129
(16CLL	(16cLL	(16e-LL	(16ee-LL	.
16D	16d	16f	16ff	.
16C	16c	16e-	16ee-	.
16DJ	16dJ	16fJ	16ffJ	.
8CJ)	8cJ)	8e-J)	8ee-J)	.
(16AALL	(16ALL	(16cLL	(16ccLL	.
16BB-	16B-	16d	16dd	.
16AA	16A	16c	16cc	.
16BB-J	16B-J	16dJ	16ddJ	.
8AAJ)	8AJ)	8cJ)	8ccJ)	.
=130	=130	=130	=130	=130
4.FF	8F'L	4.An	4.an	.
.	8c'	.	.	.
.	8F'J	.	.	.
8r	(16fLL	4.cc	4.ee-	.
.	16g	.	.	.
8AA'L	16f	.	.	.
.	16gJ	.	.	.
8FF'J	8fJ)	.	.	.
=131	=131	=131	=131	=131
(16FLL	8r	4.b-	4.dd	.
16G	.	.	.	.
16F	8d'L	.	.	.
16GJ	.	.	.	.
8FJ)	8B-'J	.	.	.
8r	(16enLL	4.gg	4.bb-	.
.	16f	.	.	.
8BB-'L	16e	.	.	.
.	16fJ	.	.	.
8FF'J	8eJ)	.	.	.
=132	=132	=132	=132	=132
(16FLL	8r	4.ff	4.aa	.
16G	.	.	.	.
16F	8f'L	.	.	.
16GJ	.	.	.	.
8FJ)	8c'J	.	.	.
8r	(16e-XLL	4.aa	4.ccc	.
.	16f	.	.	.
8C'L	16e-	.	.	.
.	16fJ	.	.	.
8FF'J	8e-J)	.	.	.
=133	=133	=133	=133	=133
(16FLL	8r	4.bb-	4.ddd-X	.
16G	.	.	.	.
16F	8d-X'L	.	.	.
16GJ	.	.	.	.
8FJ)	8B-'J	.	.	.
8r	(16gLL	(16b-LL	4.ff-X	.
.	16a	16cc	.	.
8FL	16g	16b-	.	.
.	16aJ	16ccJ	.	.
8FFJ	8gJ)	8b-J)	.	.
=134	=134	=134	=134	=134
8F	8f	8a	4.ff	.
8r	8r	8r	.	.
8r	8r	8r	.	.
4r	4r	4r	(8aL	.
.	.	.	8f	.
8r	8r	8r	8aJ)	.
=135	=135	=135	=135	=135
2.r	2.r	4r	8cc	.
.	.	.	8r	.
.	.	8r	8r	.
.	.	(8ccL	(8aaL	.
.	.	8a	8ff	.
.	.	8ccJ)	8aaJ)	.
=136	=136	=136	=136	=136
4r	4r	8ee-	8ccc	.
.	.	8r	8r	.
8r	8r	8r	8r	.
(8AL	(8cL	(8aaL	(8cccL	.
8c	8e-	8ff	8aa	.
8AJ)	8cJ)	8aaJ	8cccJ	.
=137	=137	=137	=137	=137
8F	8A	8ccc)	8eee-)	.
8r	8r	8r	8r	.
8r	8r	8r	8r	.
4r	4r	4r	4r	.
8r	8r	8dd	8ff	.
=138	=138	=138	=138	=138
4B-	(4b-	(8ddL	(8ffL	.
.	.	8b-)	8dd)	.
8r	8f)	8b-'J	8dd'J	.
4BB-	(8fL	(8b-L	(8ddL	.
.	8d)	8f)	8b-)	.
8r	8d'J	8f'J	8b-'J	.
=139	=139	=139	=139	=139
(4D	(4d	(4f	(4b-	.
8BB-)	8f)	8b-)	8dd)	.
4F	4.f	4a	4cc	.
8D	.	8b-	8dd	.
=140	=140	=140	=140	=140
.	.	.	16qqff/	.
4C	8.gL	4cc	8.ee-L	.
.	16fk	.	16ddk	.
8r	8e-J	8r	8ccJ	.
(8E-L	4e-	4.c	(8gL	.
8C	.	.	8b-	.
8FJ)	8c	.	8aJ)	.
=141	=141	=141	=141	=141
(4D	(8B-L	(4f	(4b-	.
.	8d	.	.	.
8BB-)	8fJ)	8b-)	8dd)	.
4.F	4.f	4a	4cc	.
.	.	8dd	8ff	.
=142	=142	=142	=142	=142
4B-	4b-	(16ddLL	(16ffLL	.
.	.	16ee-J)	16ggJ)	.
.	.	8dd	8ff	.
8r	8f	8b-J	8ddJ	.
4BB-	(16fLL	(16b-LL	(16ddLL	.
.	16gJ	16ccJ)	16ee-J)	.
.	8f)	8b-	8dd	.
8r	8d'J	8fJ	8b-J	.
=143	=143	=143	=143	=143
(4D	(4d	(4f	(4b-	.
8BB-)	8f)	8b-)	8dd)	.
4F	4.f	4a	4cc	.
8D	.	8b-	8dd	.
=144	=144	=144	=144	=144
.	.	.	16qqff/	.
4.C	8.gL	4cc	8.ee-L	.
.	16fk	.	16ddk	.
.	8e-J	8r	8ccJ	.
(8E-L	4.e-	4.c	(8gL	.
8C	.	.	8b-	.
8FJ)	.	.	8aJ)	.
=145	=145	=145	=145	=145
8BB-L	(4d	8B-L	(4b-	.
8BB-	.	(16B-L	.	.
.	.	16A	.	.
8BB-J	8f)	16B-	8dd)	.
.	.	16AJJ	.	.
[4.BB-	4d	4B-)	4b-	.
.	8d	8f	8r	.
=146	=146	=146	=146	=146
2.BB-_	4e-	4g	2.r	.
.	8d	8f	.	.
.	8.cTL	8.e-TL	.	.
.	16B-k	16dk	.	.
.	8cJ	8e-J	.	.
=147	=147	=147	=147	=147
2.BB-]	[4.d	(8fL	4r	.
.	.	8a	.	.
.	.	8b-J)	8r	.
.	8dL]	4.f	4r	.
.	(8a	.	.	.
.	8b-J)	.	8dd	.
=148	=148	=148	=148	=148
2.FF	2.f	2.c 2.a	(16ee-LL	.
.	.	.	16ff	.
.	.	.	16gg)	.
.	.	.	16ff	.
.	.	.	16ee-	.
.	.	.	16ddJJ	.
.	.	.	16ccLL	.
.	.	.	16b-	.
.	.	.	16a	.
.	.	.	16g	.
.	.	.	16f	.
.	.	.	16e-JJ	.
=149	=149	=149	=149	=149
[4.BB-	[4.B- [4.f	[4.d [4.b-	16dLL	.
.	.	.	16e-	.
.	.	.	16f	.
.	.	.	16g	.
.	.	.	16a	.
.	.	.	16b-JJ	.
8BB-L]	4B-] 4f]	4d] 4b-]	4.f	.
8BB-'	.	.	.	.
8BB-'J	8d	8f	.	.
=150	=150	=150	=150	=150
[2.BB-	(4e-	(4g	2.r	.
.	8d)	8f)	.	.
.	8.cTL	8.e-TL	.	.
.	16B-k	16dk	.	.
.	8cJ	8e-J	.	.
=151	=151	=151	=151	=151
2.BB-]	[4.d	8f'L	4r	.
.	.	(8a	.	.
.	.	8b-J)	8r	.
.	8dL]	4.f	4r	.
.	(8a	.	.	.
.	8b-J)	.	8dd'	.
=152	=152	=152	=152	=152
2.FF	(4.a	2.e- 2.cc	(16ee-LL	.
.	.	.	16dd)	.
.	.	.	16cc	.
.	.	.	16b-	.
.	.	.	16a	.
.	.	.	16b-JJ	.
.	[4.f)	.	16ccLL	.
.	.	.	16dd	.
.	.	.	16ee-	.
.	.	.	16ff	.
.	.	.	16gg	.
.	.	.	16aaJJ	.
=153	=153	=153	=153	=153
8BB-	8f]	8d 8b-	8bb-L	.
8r	8r	8r	16r	.
.	.	.	(16b-L	.
8r	8r	8r	16a	.
.	.	.	16b-JJ	.
4.F	[4.f	(4.e- 4.cc	16ccLL	.
.	.	.	16dd	.
.	.	.	16ee-	.
.	.	.	16ff	.
.	.	.	16gg	.
.	.	.	16aaJJ	.
=154	=154	=154	=154	=154
8B-	8f]	8d) 8b-	8bb-L)	.
8r	8r	8r	16r	.
.	.	.	(16b-L	pp
8r	8r	8r	16a	.
.	.	.	16b-JJ	.
(4.F	[4.f	(4.e- 4.cc	16ccLL	.
.	.	.	16dd	.
.	.	.	16ee-	.
.	.	.	16ff	.
.	.	.	16gg	.
.	.	.	16aaJJ	.
=155	=155	=155	=155	=155
8B-L)	8fL]	8dL) 8b-	8bb-')	.
8B-'	8b-'	8bb-'	8r	.
8B-'J	8b-'J	8bb-'J	8r	.
8r	8r	8r	8gg'	.
8G'L	8g'L	8gg'L	8r	.
8G'J	8g'J	8gg'J	8r	.
=156	=156	=156	=156	=156
8r	8r	8r	8dd'	.
8D'L	8d'L	8dd'L	8r	.
8D'J	8d'J	8dd'J	8r	.
8r	8r	8r	8een'	.
8En'L	8en'L	8een'L	8r	.
8E'J	8e'J	8ee'J	8r	.
=157	=157	=157	=157	=157
[2.F	8r	8r	[2.ff	.
.	(8AL	(8cL	.	.
.	8cJ	8e-J	.	.
.	8B-L	8dL	.	.
.	8A	8c	.	.
.	8GJ)	8B-J)	.	.
=158	=158	=158	=158	=158
2.F_	(8FL	(8AL	2.ff_	.
.	8A	8c	.	.
.	8cJ	8e-J	.	.
.	8B-L	8dL	.	.
.	8A	8c	.	.
.	8GJ)	8B-J)	.	.
=159	=159	=159	=159	=159
8F]	8F	8A	(8ffL]	.
8r	8r	8r	8gg	.
(8C	(8G	(8B-	8eenJ	.
8F)	8F)	8A)	8ffL	.
8r	8r	8r	8aa	.
(8C	(8G	(8B-	8eeJ)	.
=160	=160	=160	=160	=160
8F)	8F)	8A)	(8ffL	.
8r	8r	8r	8ccc	.
(8c	(8g	(8b-	8eenJ	.
8F)	8f)	8a)	8ffL	.
8r	8r	8r	8fff	.
(8c	(8g	(8b-	8eeJ)	.
=161	=161	=161	=161	=161
8FL)	8fL)	8aL)	(8ff'L	.
(8F'	(8c'	(8a'	8ff'	.
8F'J	8c'J	8a'J	8ff'J	.
8F'L	8c'L	8a'L	8ff'L	.
8F'	8c'	8a'	8ff'	.
8F'J)	8c'J)	8a'J)	8ff'J)	.
=162	=162	=162	=162	=162
4.F	4.c	4.a	4ff	.
.	.	.	8r	.
4r	4r	4r	4ff	.
8r	8r	8r	8r	.
=163	=163	=163	=163	=163
.	.	.	32qqeen/LLL	f
.	.	.	32qqff/	.
.	.	.	32qqgg/JJJ	.
2.r	4r	4r	2.ff	.
.	8r	8r	.	.
.	4r	4r	.	.
.	8d	8f	.	.
=164	=164	=164	=164	=164
2.r	(8dL	(8fL	2.ff	.
.	8B-)	8d)	.	.
.	8B-'J	8d'J	.	.
.	(8B-L	(8dL	.	.
.	8D)	8B-)	.	.
.	8D'J	8B-'J	.	.
=165	=165	=165	=165	=165
(4D	(4F	(4B-	2.ff	.
8BB-)	8B-)	8d)	.	.
4.F	4A	4c	.	.
.	8c-X	8d	.	.
=166	=166	=166	=166	=166
2.r	(16cLL	(16e-LL	2.ff	.
.	16dJ	16fJ	.	.
.	8c)	8e-)	.	.
.	8AJ	8cJ	.	.
.	(16ALL	(16cLL	.	.
.	16B-XJ	16dJ	.	.
.	8A)	8c)	.	.
.	8CJ	8AJ	.	.
=167	=167	=167	=167	=167
(4FF	(4C	(4A	4.ff	.
8AA)	8c)	8e-)	.	.
.	.	.	32qqeen/LLL	.
.	.	.	32qqff/JJJ	.
4BB-	8B-L	4d	4f	.
.	8b-	.	.	.
8r	8b-J	8gg'	8bb-'	.
=168	=168	=168	=168	=168
4E-	2.b-T	(8ggL	(8bb-L	.
.	.	8ee-)	8gg)	.
8r	.	8ee-'J	8gg'J	.
4r	.	(8ee-L	(8ggL	.
.	.	8g)	8ee-)	.
8r	.	8g'J	8ee-'J	.
=169	=169	=169	=169	=169
(4G	2.b-	(4b-	(4ee-	.
8E-)	.	8ee-)	8gg)	.
4B-	.	4dd	4ff	.
8r	.	8een	8gg	.
=170	=170	=170	=170	=170
2.r	2.cc	(16ffLL	(16aa-XLL	.
.	.	16ggJ	16bb-J	.
.	.	8ff)	8aa-)	.
.	.	8dd'J	8ff'J	.
.	.	(16ddLL	(16ffLL	.
.	.	16ee-J	16ggJ	.
.	.	8dd)	8ff)	.
.	.	8f'J	8dd'J	.
=171	=171	=171	=171	=171
(4BB-	4.b-	(4f	(4dd	.
8D)	.	8ff)	8aa-X)	.
.	32qqa/LLL	.	.	.
.	32qqb-/JJJ	.	.	.
4E-	4B-	4ee-	4gg	.
(8D	(8f	8bn	[8gg	.
=172	=172	=172	=172	=172
4.C)	[4.e-)	4.cc	8ggL]	.
.	.	.	16aaL	.
.	.	.	16bbn	.
.	.	.	16ccc	.
.	.	.	16dddJJ	.
4.c	(4e-]	(4g	16eee-LL	.
.	.	.	16ddd	.
.	.	.	16ccc	.
.	.	.	16bb-X	.
.	8cc)	8ee-)	16aa	.
.	.	.	16ggJJ	.
=173	=173	=173	=173	=173
(4.A	(4.cc	(4.ee-	(16ggLL	.
.	.	.	16ff)	.
.	.	.	16gg	.
.	.	.	16aa	.
.	.	.	16bb-	.
.	.	.	16cccJJ	.
4.B-)	[4.b-)	[4.dd)	(16dddLL	.
.	.	.	16ccc)	.
.	.	.	16bb-	.
.	.	.	16aa	.
.	.	.	16gg	.
.	.	.	16ffJJ	.
=174	=174	=174	=174	=174
4.G	4.b-]	4.dd]	(16ffLL	.
.	.	.	16ee-)	.
.	.	.	16ff	.
.	.	.	16gg	.
.	.	.	16aa	.
.	.	.	16bb-JJ	.
4.A	[4.a	[4.cc	(16cccLL	.
.	.	.	16bb-)	.
.	.	.	16aa	.
.	.	.	16gg	.
.	.	.	16ff	.
.	.	.	16ee-JJ	.
=175	=175	=175	=175	=175
(4.F#X	(4.a]	(4.cc]	(16ee-LL	.
.	.	.	16dd)	.
.	.	.	16een	.
.	.	.	16ff#X	.
.	.	.	16gg	.
.	.	.	16aaJJ	.
4.G)	4.g)	4.b-)	16bb-LL	.
.	.	.	16aa	.
.	.	.	16gg	.
.	.	.	16ffn	.
.	.	.	16ee-X	.
.	.	.	16ddJJ	.
=176	=176	=176	=176	=176
8E-	8g	8cc	8ccL	.
8r	8r	8r	(8gg	.
8r	8r	8r	8ffJ	.
(8CL	(8GL	(8gL	8ee-L	.
8D	8Bn	8f	8dd	.
8E-J)	8cJ)	8e-J)	8ccJ)	.
=177	=177	=177	=177	=177
(4.F	([4.F	(4d	(4b-	.
.	.	[8c)	[8a)	.
4.AA)	4F]	(4c]	(8aL]	.
.	.	.	8g	.
.	8c)	8e-)	8fJ)	.
=178	=178	=178	=178	=178
4.BB-	4.B-X	(8dL	(8fL	.
.	.	8f	8b-	.
.	.	8dJ)	8fJ)	.
(8DL	(8FL	(8dL	(8fL	.
8E-	8G)	8c	8e-	.
8EnJ)	8GJ	8B-J)	8dJ)	.
=179	=179	=179	=179	=179
(4.F	[2.F	(8B-L	(8dL	.
.	.	8AJ)	8cJ)	.
.	.	4e-	4g	.
4.AA)	.	.	.	.
.	.	(8dL	(8fL	.
.	.	8cJ)	8e-J)	.
=180	=180	=180	=180	=180
4.BB-	4.F_	(8cL	(8e-L	.
.	.	8B-J)	8dJ)	.
.	.	4d	4f	.
(4D	(4F]	.	.	.
.	.	(8cL	(8e-L	.
8E-X)	8G)	8B-J)	8dJ)	.
=181	=181	=181	=181	=181
(4.F	4.F	(8B-L	(8dL	.
.	.	8AJ)	8cJ)	.
.	.	4ee-	4gg	.
4.A)	[4.f	.	.	.
.	.	(8ddL	(8ffL	.
.	.	8ccJ)	8ee-J)	.
=182	=182	=182	=182	=182
4.B-	(4f]	(8ccL	(8ee-L	.
.	.	8b-J)	8ddJ)	.
.	8d)	4dd	4ff	.
4.G	4.B-	.	.	.
.	.	8r	8dd'L	.
.	.	8b-	8b-'J	.
=183	=183	=183	=183	=183
4.F	4.c	4.a	(16ffLL	.
.	.	.	16gg	.
.	.	.	16ff	.
.	.	.	16ggJ	.
.	.	.	8ffJ)	.
4r	4r	8r	4r	.
.	.	8dd'L	.	.
8r	8r	8b-'J	8r	.
=184	=184	=184	=184	=184
2.r	4r	(16fLL	2.r	.
.	.	16g	.	.
.	.	16f	.	.
.	.	16gJ	.	.
.	8r	8fJ)	.	.
.	8r	4r	.	.
.	8d'L	.	.	.
.	8B-'J	8r	.	.
=185	=185	=185	=185	=185
4r	(16fLL	2.r	2.r	.
.	16g	.	.	.
.	16f	.	.	.
.	16gJ	.	.	.
8r	8fJ)	.	.	.
8r	4r	.	.	.
8D'L	.	.	.	.
8BB-'J	8r	.	.	.
=186	=186	=186	=186	=186
(16FFLL	4r	2.r	2.r	.
16GG	.	.	.	.
16FF	.	.	.	.
16GGJ	.	.	.	.
8FFJ)	8r	.	.	.
4r	(16FLL	.	.	.
.	16G	.	.	.
.	16F	.	.	.
.	16GJ	.	.	.
8r	8FJ)	.	.	.
=187	=187	=187	=187	=187
2.r	2.r	(16fLL	4r	.
.	.	16g	.	.
.	.	16f	.	.
.	.	16gJ	.	.
.	.	8fJ)	8r	.
.	.	4r	(16ffLL	.
.	.	.	16gg	.
.	.	.	16ff	.
.	.	.	16ggJ	.
.	.	8r	8ffJ)	.
=188	=188	=188	=188	=188
(4.FF	2.r	(4.A	(16e-LL	.
.	.	.	16f	.
.	.	.	16e-	.
.	.	.	16fJ	.
.	.	.	8e-J)	.
4.GG-X	.	4.B-	8r	.
.	.	.	8e-'L	.
.	.	.	8e-'J	.
=189	=189	=189	=189	=189
4.FF	16E-LL	4.c	(4b-	.
.	16F	.	.	.
.	16E-	.	.	.
.	16FJ	.	.	.
.	8E-J	.	8a)	.
4.GG-X	8r	4.B-	4r	.
.	8E-L	.	.	.
.	8E-J	.	8r	.
=190	=190	=190	=190	=190
4.FF)	4B-	4.c	(16ee-LL	.
.	.	.	16ff	.
.	.	.	16ee-	.
.	.	.	16ffJ	.
.	8A	.	8ee-J)	.
(4.G-X	4r	4.B-)	8r	.
.	.	.	8ee-L	.
.	8r	.	8ee-J	.
=191	=191	=191	=191	=191
4.F)	16e-LL	4.c	(4bb-	.
.	16f	.	.	.
.	16e-	.	.	.
.	16fJ	.	.	.
.	8e-J	.	8aa)	.
.	.	.	16qqaa/KL	fp
.	.	.	8qqccc/J	.
(4.E-	[4.f	(4cc	4eee-	.
.	.	16aLL	16cccLL	.
.	.	16ccJJ	16aaJJ	.
=192	=192	=192	=192	=192
8D)	8f]	8b-)	(16bb-LL	.
.	.	.	16ccc	.
8r	8r	8r	16bb-	.
.	.	.	16cccJ	.
8r	8r	8r	8dddJ)	.
8E-	8e-	8b-	(16ggLL	.
.	.	.	16aa	.
8r	8r	8r	16gg	.
.	.	.	16aaJ	.
8r	8r	8r	8bb-J)	.
=193	=193	=193	=193	=193
8G	8B-	8b-	(16ee-LL	.
.	.	.	16ff	.
8r	8r	8r	16ee-	.
.	.	.	16ffJ	.
8r	8r	8r	8ggJ)	.
8A	8c	8f	(16ccLL	.
.	.	.	16dd	.
8r	8r	8r	16cc	.
.	.	.	16ddJ	.
8r	8r	8r	8ee-J)	.
=194	=194	=194	=194	=194
4.B-	4.B-	(8fL	(8ddL	.
.	.	8ee-)	8gg)	.
.	.	8ddJ	8ff'J	.
.	.	16qqdd/	16qqff/	.
8E-'L	8g'L	8cc'L	8ee-'L	.
8F'	8f'	8b-'	8dd'	.
8F'J	8e-'J	8a'J	8cc'J	.
=195	=195	=195	=195	=195
4.BB-	4.d	4.b-	4.b-	.
4r	4r	8b-'L	4r	.
.	.	8cc'	.	.
8r	8r	8dd'J	8r	.
=196	=196	=196	=196	=196
4A	(4e-	(16fLL	2.r	.
.	.	16g	.	.
.	.	16f	.	.
.	.	16gJ	.	.
8B-	8d)	8fJ)	.	.
4r	4r	8b-'L	.	.
.	.	8cc'	.	.
8r	8r	8dd'J	.	.
=197	=197	=197	=197	=197
4A	(4e-	(16fLL	2.r	.
.	.	16g	.	.
.	.	16f	.	.
.	.	16gJ	.	.
8B-	8d)	8fJ)	.	.
4r	4r	8b-'L	.	.
.	.	8cc'	.	.
8r	8r	8dd'J	.	.
=198	=198	=198	=198	=198
(4F#X	(4c	(16dLL	2.r	.
.	.	16e-	.	.
.	.	16d	.	.
.	.	16e-J	.	.
8G)	8B-)	8dJ)	.	.
(4Bn	(4f	(16gLL	.	.
.	.	16a-X	.	.
.	.	16g	.	.
.	.	16a-J	.	.
8c)	8e-)	8gJ)	.	.
=199	=199	=199	=199	=199
(4En	(4B-	(16ccLL	2.r	.
.	.	16dd	.	.
.	.	16cc	.	.
.	.	16ddJ	.	.
8F)	8A)	8ccJ)	.	.
(4A	(4e-	(16ffLL	.	.
.	.	16gg	.	.
.	.	16ff	.	.
.	.	16ggJ	.	.
8B-X)	8d)	8ffJ)	.	.
=200	=200	=200	=200	=200
4E-X	8r	8r	2.r	.
.	8e-'L	8gg'L	.	.
8r	8d'J	8ff'J	.	.
.	8qqd/	8qqff/	.	.
4F	8c'L	8ee-'L	.	.
.	8B-'	8dd'	.	.
8r	8A'J	8cc'J	.	.
=201	=201	=201	=201	=201
4.BB-	4.B-	4.b-	4r	.
.	.	.	8r	.
4r	4r	4r	8bb-'L	.
.	.	.	8ccc'	.
8r	8r	8r	8ddd'J	.
=202	=202	=202	=202	=202
2.r	(4a	(4ee-	(16ffLL	.
.	.	.	16gg	.
.	.	.	16ff	.
.	.	.	16ggJ	.
.	8b-)	8dd)	8ffJ)	.
.	4r	4r	8bb-L	.
.	.	.	8ccc	.
.	8r	8r	8dddJ	.
=203	=203	=203	=203	=203
2.r	(4a	(4ee-	(16ffLL	.
.	.	.	16gg	.
.	.	.	16ff	.
.	.	.	16ggJ	.
.	8b-)	8dd)	8ffJ)	.
.	4r	4r	8bb-L	.
.	.	.	8ccc	.
.	8r	8r	8dddJ	.
=204	=204	=204	=204	=204
2.r	(4d	(4a-X	(16b-LL	.
.	.	.	16cc	.
.	.	.	16b-	.
.	.	.	16ccJ	.
.	8e-)	8g)	8b-J)	.
.	(4en	(4b-	(16ccLL	.
.	.	.	16dd	.
.	.	.	16cc	.
.	.	.	16ddJ	.
.	8f)	8an)	8ccJ)	.
=205	=205	=205	=205	=205
4F#X	4c	(16dLL	(16ddLL	.
.	.	16e-	16ee-	.
.	.	16d	16dd	.
.	.	16e-J	16ee-J	.
8G	8B-	8dJ)	8ddJ)	.
4A	4e-X	(16fLL	(16ffLL	.
.	.	16g	16gg	.
.	.	16f	16ff	.
.	.	16gJ	16ggJ	.
8B-	8d	8fJ)	8ffJ)	.
=206	=206	=206	=206	=206
4.E-	8r	8r	8r	.
.	8e-'L	8g'L	8gg'L	.
.	8d'J	8f'J	8ff'J	.
.	16qqd/	16qqf/	16qqff/	.
4.F	8c'L	8e-'L	8ee-'L	.
.	8B-'	8d'	8dd'	.
.	8A'J	8c'J	8cc'J	.
=207	=207	=207	=207	=207
4.BB-	(16b-LL	4B-	2.b-	.
.	16cc	.	.	.
.	16b-	.	.	.
.	16ccJ	.	.	.
.	8ddJ)	8r	.	.
4r	(16gLL	(16b-LL	.	.
.	16a	16cc	.	.
.	16g	16b-	.	.
.	16aJ	16ccJ	.	.
8r	8b-J)	8ddJ)	.	.
*clefC4	*	*	*	*
=208	=208	=208	=208	=208
(16e-LL	(16gLL	(16ccLL	2.gg	.
16f	16a	16dd	.	.
16e-	16g	16cc	.	.
16fJ	16aJ	16ddJ	.	.
8gJ)	8b-J)	8ee-J)	.	.
(16cLL	(16e-LL	(16aLL	.	.
16d	16f	16b-	.	.
16c	16e-	16a	.	.
16dJ	16fJ	16b-J	.	.
8e-J)	8gJ)	8ccJ)	.	.
*clefF4	*	*	*	*
=209	=209	=209	=209	=209
(4A	(4c	4ee-	(16ffLL	.
.	.	.	16gg	.
.	.	.	16ff	.
.	.	.	16ggJ	.
8B-)	8d)	8dd	8ffJ)	.
.	.	16qqdd/	16qqff/	.
8E-'L	8g'L	8cc'L	8ee-'L	.
8F'	8f'	8b-'	8dd'	.
8F'J	8e-'J	8a'J	8cc'J	.
=210	=210	=210	=210	=210
(16B-LL	(16dLL	4b-	2.b-	.
16c	16e-	.	.	.
16B-	16d	.	.	.
16cJ	16e-J	.	.	.
8dJ)	8fJ)	8r	.	.
(16GLL	(16B-LL	4r	.	.
16A	16c	.	.	.
16G	16B-	.	.	.
16AJ	16cJ	.	.	.
8B-J)	8dJ)	8r	.	.
=211	=211	=211	=211	=211
(16E-LL	(16GLL	(16cLL	2.gg	.
16F	16A	16d	.	.
16E-	16G	16c	.	.
16FJ	16AJ	16dJ	.	.
8GJ)	8B-J)	8e-J)	.	.
(16CLL	(16E-LL	(16ALL	.	.
16D	16F	16B-	.	.
16C	16E-	16A	.	.
16DJ	16FJ	16B-J	.	.
8E-J)	8GJ)	8cJ)	.	.
=212	=212	=212	=212	=212
(2.AA	(2.c	(2.e-	(2.gg-X	.
=213	=213	=213	=213	=213
2.C-X)	2.d)	2.a-X)	2.ff)	.
=214	=214	=214	=214	=214
(2.C#X	2.g	(2.b-	(2.een	.
=215	=215	=215	=215	=215
4.D	(4.a-X	4.bn)	4.ff	.
4.En)	[4.b-)	(4.dd-X	4.gg)	.
=216	=216	=216	=216	=216
8F	8b-]	8ddn)	(8ffL	.
8r	8r	8r	8een	.
8r	8r	8r	8ee-XJ	.
4r	4r	4r	8ddL	.
.	.	.	8dd-X	.
8r	8r	8r	8ccJ)	.
=217	=217	=217	=217	=217
2.FF	(4.d	(4.f	(4.b-	.
.	.	.	16qqddn/	.
.	4.e-)	4.a)	4.cc)	.
=218	=218	=218	=218	=218
[2.BB-	4.d	4.b-	[2.b-	.
.	4r	4r	.	.
.	8d	8f	.	.
=219	=219	=219	=219	=219
2.BB-_	(4e-	(4g	2.b-_	.
.	8d)	8f)	.	.
.	8.cTL	8.e-TL	.	.
.	16B-k	16dk	.	.
.	8cJ	8e-J	.	.
=220	=220	=220	=220	=220
4.BB-_	4c#X	(4en	4.b-_	.
.	8d	8f)	.	.
4BB-]	4B-	(4d	(4b-]	.
8D	8F	8A-X)	8bn)	.
=221	=221	=221	=221	=221
4.E-	4.E-	(4.G	(4cc	.
.	.	.	8b-X)	.
4.F	4.c	4.e-)	8.atL	.
.	.	.	16gk	.
.	.	.	8aJ	.
=222	=222	=222	=222	=222
[2.B-	4.B-	4.d	(8b-L	.
.	.	.	8dd	.
.	.	.	8ffJ)	.
.	4r	4r	[4.bb-	.
.	8dd	8ff#X	.	.
=223	=223	=223	=223	=223
2.B-_	(4ee-	(4gg	2.bb-_	.
.	8dd)	8ffn)	.	.
.	8.ccTL	8.ee-TL	.	.
.	16b-k	16ddk	.	.
.	8ccJ	8ee-J	.	.
=224	=224	=224	=224	=224
(4B-]	4cc#X	(4een	4.bb-]	.
8A-X)	8dd	8ff)	.	.
.	(32qqf/LLL	(32qqdd/LLL	.	.
.	32qqg/JJJ)	32qqee/JJJ)	.	.
4.G	8.a-XL	8.ffL	4.bbn	.
.	16gk	16ee-Xk	.	.
.	8fJ	8ddJ	.	.
=225	=225	=225	=225	=225
4c	4e-	4cc	(8cccL	.
.	.	.	8eee-	.
8r	8r	8r	8gggJ)	.
4F	4e-	4cc	(8gggL	.
.	.	.	8fff	.
8r	8r	8r	8aaJ)	.
=226	=226	=226	=226	=226
4B-	4d	4b-	(8bb-L	.
.	.	.	8ddd	.
8r	8r	8r	8fffJ)	.
4G	4b-	4dd	(8fffL	.
.	.	.	8eee-	.
8r	8r	8r	8dddJ)	.
=227	=227	=227	=227	=227
8E-	8ee-	8gg	8r	.
8r	8r	8r	(8bbnL	.
8r	8r	8r	8cccJ)	.
8F	8cc	8ee-	8r	.
8r	8r	8r	(8eee-L	.
8r	8r	8r	8aaJ)	.
=228	=228	=228	=228	=228
8G	8b-	8dd	8r	.
8r	8r	8r	(8cccL	.
8r	8r	8r	8bb-J)	.
8D	8f	8b-	8r	.
8r	8r	8r	(8ffL	.
8r	8r	8r	8ddJ)	.
=229	=229	=229	=229	=229
8E-	8e-	8g	8r	.
8r	8r	8r	(8bnL	.
8r	8r	8r	8ccJ)	.
8F	8A	8e-	8r	.
8r	8r	8r	(8ee-L	.
8r	8r	8r	8ccJ)	.
=230	=230	=230	=230	=230
8BB-	8B-	8d	8b-	.
8r	8r	8r	8r	.
8r	8r	8r	8r	.
8B-	8f	8dd	8bb-	.
8r	8r	8r	8r	.
8r	8r	8r	8r	.
=231	=231	=231	=231	=231
4B-	4f	4dd	4bb-	.
8r	8r	8r	8r	.
4r	4r	4r	4r	.
8r	8r	8r	8cc	.
=232:|!	=232:|!	=232:|!	=232:|!	=232:|!
8BB-	8B-	8d	8b-	.
8r	8r	8r	8r	.
8r	8r	8r	8r	.
8B-	8f	8dd	8bb-	.
8r	8r	8r	8r	.
8r	8r	8r	8r	.
=233	=233	=233	=233	=233
4.B-	4.f	4.dd	4.bb-	.
4r	4r	4r	4r	.
8r	8r	8r	8r	.
=234	=234	=234	=234	=234
4DD	4F	4A-X	4bn	.
8r	8r	8r	8r	.
4D	4f	4bn	4aa-X	.
8r	8r	8r	8r	.
=235	=235	=235	=235	=235
4D	4f	4bn	4aa-X	.
8r	8r	8r	8r	.
4r	4r	4r	4r	.
8r	8r	8r	8r	.
=236	=236	=236	=236	=236
2.r	2.r	2.r	(2.ff#X	.
=237	=237	=237	=237	=237
2.r	2.r	2.r	2.gg)	.
=238	=238	=238	=238	=238
2.r	(2.e-	[2.g [2.b-	([2.cc	.
=239	=239	=239	=239	=239
2.r	2.f-X)	2.g] 2.b-]	4.cc]	.
.	.	.	4dd-X	.
.	.	.	8cc)	.
=240	=240	=240	=240	=240
[2.FF	4.f	4.a	4.cc	.
.	4r	4r	4r	.
.	8r	8r	8ff	.
=241	=241	=241	=241	=241
2.FF_	2.r	4r	(8ffL	.
.	.	.	8dd)	.
.	.	8b-	8dd'J	.
.	.	(8b-L	(8ddL	.
.	.	8g)	8b-)	.
.	.	8g'J	8b-'J	.
=242	=242	=242	=242	=242
2.FF_	8r	(8gL	(4b-	.
.	8FL	8e-)	.	.
.	8FJ	8e-'J	8gg)	.
.	8FL	(4e-	4gg	.
.	8F	.	.	.
.	8FJ	8cc)	8ee-	.
=243	=243	=243	=243	=243
2.FF_	[2.F	(4cc	(8ee-L	.
.	.	.	8cc)	.
.	.	8a)	8cc'J	.
.	.	(8aL	(8ccL	.
.	.	8f)	8a)	.
.	.	8f'J	8a'J	.
=244	=244	=244	=244	=244
2.FF_	8FL]	(8fL	(4a	.
.	8F	8d)	.	.
.	8FJ	8d'J	8ff)	.
.	8FL	4d	4ff	.
.	8F	.	.	.
.	8FJ	8b-	8dd	.
=245	=245	=245	=245	=245
2.FF_	[2.F	(4b-	(8ddL	.
.	.	.	8b-)	.
.	.	8g)	8b-'J	.
.	.	(8gL	(8b-L	.
.	.	8e-)	8g)	.
.	.	8e-'J	8g'J	.
=246	=246	=246	=246	=246
2.FF_	4.F]	8e-L	8gL	.
.	.	8c	8ee-	.
.	.	8e-J	8ccJ	.
.	[4.F	8fL	8aL	.
.	.	8d	8ff	.
.	.	8fJ	8ddJ	.
=247	=247	=247	=247	=247
4.FF_	4.F]	8gL	8b-L	.
.	.	8e-	8gg	.
.	.	8gJ	8ee-J	.
4FF]	[4.F	8aL	8ccL	.
.	.	8f	8ff	.
8F	.	8aJ	8ee-J	.
=248	=248	=248	=248	=248
(8FL	4F]	4.b-	4.dd	.
8D)	.	.	.	.
8D'J	8f	.	.	.
(8DL	(8fL	4r	4r	.
8BB-)	8d)	.	.	.
8BB-'J	8d'J	8b-	8r	.
=249	=249	=249	=249	=249
(4BB-	(8dL	(8b-L	4r	.
.	8B-)	8g)	.	.
8E-)	8B-'J	8g'J	8bb-	.
4E-	(4B-	(8gL	(8bb-L	.
.	.	8e-)	8gg)	.
8E-	8b-)	8e-'J	8gg'J	.
=250	=250	=250	=250	=250
(8E-L	(8b-L	(4e-	(8ggL	.
8C)	8cc)	.	8ee-)	.
8C'J	8cc'J	8g)	8ee-'J	.
(8CL	4.cc	(8gL	(4ee-	.
8AA)	.	8a)	.	.
8AA'J	.	8a'J	8ccc)	.
=251	=251	=251	=251	=251
(4AA	4r	(8aL	4ccc	.
.	.	8f)	.	.
8D)	8r	8f'J	8aa	.
4D	8r	(8fL	(8aaL	.
.	8aL	8d)	8ff)	.
8D	8aJ	8d'J	8ff'J	.
=252	=252	=252	=252	=252
(8DL	(8aL	(4d	(8ffL	.
8BB-)	8b-)	.	8dd)	.
8BB-'J	8b-J	8f)	8dd'J	.
(8BB-L	4.b-	(8fL	(4dd	.
8GG)	.	8g)	.	.
8GG'J	.	8g'J	8bb-)	.
=253	=253	=253	=253	=253
(4GG	4r	(8gL	4bb-	.
.	.	8e-)	.	.
8C)	8r	8e-'J	8gg	.
4C	8r	4e-	(8ggL	.
.	8cL	.	8ee-)	.
8C	8cJ	8e-	8ee-'J	.
=254	=254	=254	=254	=254
(8CL	(8cL	(8e-L	(8ee-L	.
8AA)	8A)	8c)	8cc)	.
8AA'J	8A'J	8c'J	8cc'J	.
(8AAL	(8AL	(8cL	(8ccL	.
8FF)	8F)	8A)	8a)	.
8FF'J	8F'J	8A'J	8a'J	.
=255	=255	=255	=255	=255
4E-	4c	4g-X	4aa	.
8r	8r	8r	8r	.
4F-X	4d-X	4gn	4bb-	.
8r	8r	8r	8r	.
=256	=256	=256	=256	=256
2.r	4r	([4.b-	([4.dd	.
.	8r	.	.	.
.	[4.dn	8b-L]	8ddL]	.
.	.	8cc	8ee-	.
.	.	8cc#XJ)	8eenJ)	.
=257	=257	=257	=257	=257
2.F	8dL]	([4.dd	([4.ff	.
.	8e-	.	.	.
.	8enJ	.	.	.
.	(4f	8ddL]	8ffL]	.
.	.	8ccn	8ee-X	.
.	8e-X)	8aJ)	8ccJ)	.
=258	=258	=258	=258	=258
4BB-	4d	8b-'L	8b-'L	.
.	.	8d'	8dd'	.
8r	8r	8B-'J	8b-'J	.
4AA	4c 4e-	(16fLL	(16ffLL	.
.	.	16g	16gg	.
.	.	16f	16ff	.
.	.	16gJ	16ggJ	.
8r	8r	8fJ)	8ffJ)	.
=259	=259	=259	=259	=259
4BB-	4B- 4d	8r	8r	.
.	.	8b-'L	8bb-'L	.
8r	8r	8dd'J	8ddd'J	.
4AA	4c 4e-	(16fLL	(16ffLL	.
.	.	16g	16gg	.
.	.	16f	16ff	.
.	.	16gJ	16ggJ	.
8r	8r	8fJ)	8ffJ)	.
=260	=260	=260	=260	=260
4BB-	4B- 4d	8r	8r	.
.	.	8d'L	8dd'L	.
8r	8r	8B-'J	8b-'J	.
8AL	8cL 8e-	(16fLL	(16ffLL	.
.	.	16g	16gg	.
8A	8c 8e-	16f	16ff	.
.	.	16gJ	16ggJ	.
8AJ	8cJ 8e-	8fJ)	8ffJ)	.
=261	=261	=261	=261	=261
4B-	4B- 4d	8r	8r	.
.	.	8b-'L	8bb-'L	.
8r	8r	8dd'J	8ddd'J	.
8AL	8cL 8e-	(16fLL	(16ffLL	.
.	.	16g	16gg	.
8A	8c 8e-	16f	16ff	.
.	.	16gJ	16ggJ	.
8AJ	8cJ 8e-	8fJ)	8ffJ)	.
=262	=262	=262	=262	=262
(16B-LL	(16dLL	8f 8dd	8b- 8ff	.
16c	16e-	.	.	.
16B-	16d	8r	8r	.
16cJ	16e-J	.	.	.
8dJ)	8fJ)	8r	8r	.
(16GLL	(16B-LL	8b- 8gg	8dd 8bb-	.
16A	16c	.	.	.
16G	16B-	8r	8r	.
16AJ	16cJ	.	.	.
8B-J)	8dJ)	8r	8r	.
=263	=263	=263	=263	=263
8E-	8G	8r	8r	.
8r	8r	(8ee-L	(8ggL	.
8r	8r	8ccJ)	8ee-J)	.
8F	8A	8r	8r	.
8r	8r	(8e-L	(8ccL	.
8r	8r	8cJ)	8aJ)	.
=264	=264	=264	=264	=264
4.D	4r	4.f	8b-'L	.
.	.	.	8dd'	.
.	8r	.	8b-'J	.
4.E-	8r	4.c 4.a	(16ffLL	.
.	.	.	16gg	.
.	8c'L	.	16ff	.
.	.	.	16ggJ	.
.	8F'J	.	8ffJ)	.
=265	=265	=265	=265	=265
4.D	(16fLL	4.d 4.b-	8r	.
.	16g	.	.	.
.	16f	.	8bb-'L	.
.	16gJ	.	.	.
.	8fJ)	.	8ddd'J	.
4.E-	8r	4.c 4.a	(16ffLL	.
.	.	.	16gg	.
.	8a'L	.	16ff	.
.	.	.	16ggJ	.
.	8cc'J	.	8ffJ)	.
=266	=266	=266	=266	=266
8DL	(16fLL	8dL 8b-	8r	.
.	16g	.	.	.
8D	16f	8d 8b-	8dd'L	.
.	16gJ	.	.	.
8DJ	8fJ)	8dJ 8b-	8b-'J	.
8E-L	8r	8aL 8cc	(16ffLL	.
.	.	.	16gg	.
8E-	8c'L	8a 8cc	16ff	.
.	.	.	16ggJ	.
8E-J	8F'J	8aJ 8cc	8ffJ)	.
=267	=267	=267	=267	=267
8DL	(16fLL	8b-L 8dd	8r	.
.	16g	.	.	.
8D	16f	8b- 8dd	8bb-'L	.
.	16gJ	.	.	.
8DJ	8fJ)	8b-J 8dd	8ddd'J	.
8E-L	8r	8aL 8cc	(16ffLL	.
.	.	.	16gg	.
8E-	8a'L	8a 8cc	16ff	.
.	.	.	16ggJ	.
8E-J	8cc'J	8aJ 8cc	8ffJ)	.
=268	=268	=268	=268	=268
8D	8f	(16b-LL	(16bb-LL	.
.	.	16cc	16ccc	.
8r	8r	16b-	16bb-	.
.	.	16ccJ	16cccJ	.
8r	8r	8ddJ)	8dddJ)	.
8E-	8e-	(16gLL	(16ggLL	.
.	.	16a	16aa	.
8r	8r	16g	16gg	.
.	.	16aJ	16aaJ	.
8r	8r	8b-J)	8bb-J)	.
=269	=269	=269	=269	=269
8F	(16B-LL	(16dLL	8ffL	.
.	16c	16e-	.	.
8r	16B-	16d	8ddJ	.
.	16cJ	16e-J	.	.
8r	8dJ)	8fJ)	8r	.
8FF	(16ALL	(16cLL	8ee-L	.
.	16B-	16d	.	.
8r	16A	16c	8ccJ	.
.	16B-J	16dJ	.	.
8r	8cJ)	8e-J)	8r	.
=270	=270	=270	=270	=270
8DL	16fLL	16b-LL 16bb-	2.r	.
.	16f	16b- 16bb-	.	.
8D	16f	16b- 16bb-	.	.
.	16f	16b- 16bb-	.	.
8DJ	16f	16b- 16bb-	.	.
.	16fJJ	16b-JJ 16bb-	.	.
8E-L	16e-LL	16b-LL 16gg	.	.
.	16e-	16b- 16gg	.	.
8E-	16e-	16b- 16gg	.	.
.	16e-	16b- 16gg	.	.
8E-J	16e-	16b- 16gg	.	.
.	16e-JJ	16b-JJ 16gg	.	.
=271	=271	=271	=271	=271
8FL	16dLL	16b-LL 16ff	4r	.
.	16d	16b- 16ff	.	.
8F	16d	16b- 16ff	.	.
.	16d	16b- 16ff	.	.
8FJ	16d	16b- 16ff	8r	.
.	16dJJ	16b-JJ 16ff	.	.
8FFL	16cLL	16e-LL 16a	4r	.
.	16c	16e- 16a	.	.
8FF	16c	16e- 16a	.	.
.	16c	16e- 16a	.	.
8FFJ	16c	16e- 16a	8ff	.
.	16cJJ	16e-JJ 16a	.	.
=272	=272	=272	=272	=272
4BB-	4.B-	4.d 4.b-	(8ffL	.
.	.	.	8dd)	.
8B-	.	.	8ddJ	.
8B-L	4r	4r	(8ddL	.
8G	.	.	8b-)	.
8GJ	8g	8d	8b-J	.
=273	=273	=273	=273	=273
4G	4g	4d	(4b-	.
8F	8c-X	8a-X	8dd)	.
4E-	4cn	4g	4cc	.
8D	8f	8cc-X	8dd	.
=274	=274	=274	=274	=274
.	.	.	16qqff/	.
4.C	4.g	4.cc	8.ee-L	.
.	.	.	16ddk	.
.	.	.	8ccJ	.
4r	4r	4r	(8ff#XL	.
.	.	.	8gg	.
8r	8r	8r	16ee-L	.
.	.	.	16ccJJ)	.
=275	=275	=275	=275	=275
8FL	8fL	(16dLL	[4.b-	.
.	.	16f	.	.
8F	8f	16d	.	.
.	.	16f	.	.
8FJ	8fJ	16d	.	.
.	.	16fJJ	.	.
8FL	8fL	16dLL	4b-]	.
.	.	16f	.	.
8F	8f	16d	.	.
.	.	16f	.	.
.	.	.	16qqdd/	.
8FJ	8aJ	16e-	8cc	.
.	.	16fJJ)	.	.
=276	=276	=276	=276	=276
8BB-L	8b-L	8dL	4.b-	.
8B-	8d	8f	.	.
8B-J	8dJ	8fJ	.	.
8B-	8d	8f	8r	.
8r	8r	8r	(16ddLL	.
.	.	.	16cc	.
8r	8r	8r	16ee-	.
.	.	.	16ddJJ)	.
=277	=277	=277	=277	=277
8r	8r	8r	8ff	.
8FL	8cL 8e-	8fL 8a	8r	.
8FJ	8cJ 8e-	8aJ	8r	.
8F	8c 8e-	8f 8a	8r	.
8r	8r	8r	(16aaLL	.
.	.	.	16bb-	.
8r	8r	8r	16ccc	.
.	.	.	16aaJJ)	.
=278	=278	=278	=278	=278
8r	8r	8r	8bb-	.
8BB-L	(16B-LL	(16dLL	8r	.
.	16A	16c	.	.
8BB-J	16c	16e-	8r	.
.	16B-JJ)	16dJJ)	.	.
8BB-	8d	8f	8r	.
8r	8r	8r	(16ddLL	.
.	.	.	16cc	.
8r	8r	8r	16ee-	.
.	.	.	16ddJJ)	.
=279	=279	=279	=279	=279
8r	8r	8r	8ff	.
8FFL	(16ALL	(16cLL	8r	.
.	16G	16B-	.	.
8FFJ	16B-	16d	8r	.
.	16AJJ)	16cJJ)	.	.
8FF	8cL	8e-	8r	.
8r	8f	(16ccLL	(16aaLL	.
.	.	16dd	16bb-	.
8r	8fJ	16ee-	16ccc	.
.	.	16ccJJ)	16aaJJ)	.
=280	=280	=280	=280	=280
4r	4B-	4dd	4bb-	.
8r	8r	8r	8r	.
4B-	4b-	4B- 4f 4dd	4d 4b- 4bb-	.
8r	8r	8r	8r	.
=281	=281	=281	=281	=281
4BB-	4B-	4B-	4B-	.
8r	8r	8r	8r	.
4r	4r	4r	4r	.
8r	8r	8r	8r	.
==	==	==	==	==
*-	*-	*-	*-	*-
!!!system-decoration: [(s1,s2,s3,s4)]
